X: 27
T:Shady Grove
R:Reel
M:C|
L:1/8
N:Transcribed by Bruce Thomson
H:From the playing of the Adobe Brothers
K:A
|:[B2E2][BE][BE][B2E2][BE][BE]|[cE][BE]AF
EFAB|cdef ecBA|[f3A3][fA][f2A2]ff|fefg abaf|
efed cBAB|[c2E2][c2e2][eE][c3E3]|[B3E3][BE][B2E2][BE][BE]::a2ag abaf|efed cBA2|a2ab afe2|
[f3A3][fA][f2A2](3efg|a2ag abaf|efed
cBA2|[c2E2][c2E2][eE][c3E3]|[1[B3E3] [BE][B2E2](3efg:|[2[B3E3][BE][B4E4]||

